X:16
T:Polska ur Petter Dufvas notbok (Ma6-16)
R:Polska
O:Verkelbäck, Småland
B:Petter Dufvas notbok
S:Petter Dufva
N:Smus Ma6 bild 18
M:3/4
L:1/8
K:G
(G,B) (BA) (AG)|GA/B/ c2B2|(G,B) (BA) (AG)|GA/B/ cd/e/ d2|(G,d) (dc) (cB)|
G,c cB BA|G,B BA AG|G,c cB BA|B,d A,c G,B|DG/F/ G2 G,2:|
|:BB/A/ BB/A/ BG|B,4 C2|B,A,/G,/ B,A,/G,/ G,2|d4 g2|ff/e/ ff/e/ dB|d4 g2|
f/g/f/e/ d/e/d/^c/ d2|B,d B,d B,d|dc cB B2|A,c A,c A,c|(cB) BA A2|
B,d A,c G,B|DG/F/ G2 G,2:|

